X: 1
T: Kathleen Hehir's Jig
T: Rural Felicity
D: De Danann, first album
N: Originally two parts; De Danann added the other two parts.
B: Roche Collection (first two parts, as Rural Felicity)
F: http://www.thesession.org/tunes/display/157
M: 12/8
L: 1/8
R: jig, slide
K: D
   zA | dcd e2d | c2E EFG | ~B3 BAG | F2D DFA | dcd e2d | c2E EFG | ABA GFE | D3- D :|
|: zA | F2A d3  | c2B G3  | ABA G2E | B2A F3  | DFA dz2 | c2B G2F | EFG ABc | d3- d :|
|: zA | ddd d2e | f2d A3  | ~f3 fed | c2d ecA | ddd d2e | f2d A2F | EFG ABc | d3- d :|
|: fg | a2f f2d | Adf agf | g2e e2c | Bcd efg | a2f f2d | Adf agf | gec ABc | d3- d :|
